X: 51
T: Temperance Reel
T: Teetolaler's Reel
O: Ryan 1883
R: reel
B: Ryan’s Mammoth Collection, 1883
Z: 1997 by John Chambers <jc:trillian.mit.edu>
M: C|
L: 1/8
K: G
|: "G"G2GF GABc | dBge "D/f#"dBAc | "Em"BEED EFGA | "D7"BGAF GFED || "G"G2GF GABc |
| "G"dBge "D/f#"dBAc | "Em"BEED "(C)"EFGA | "D7"BGAF "G"G4 :: "Em"Beed e3f | geaf gfed |
| "D"Adde d3e | fdaf gefd || "Em"Beed e3f | geaf gfed | BEED "(C)"EFGA | "D7"BGAF "G"G4 :|

%%sep 2 1 500

